dist/svg/atm-duo-tone.svg

<svg xmlns="http://www.w3.org/2000/svg" viewBox="0 0 24 24"><path d="M6.617 2.283q-.873.101-1.552.781a2.74 2.74 0 0 0-.696 1.116l-.109.32v12l.109.32c.151.445.362.783.695 1.116s.673.544 1.116.694l.32.108 2.215.021 2.215.021.709 1.3c.389.715.77 1.366.845 1.446.254.272.667.293.985.05.185-.141.267-.317.267-.576.001-.214-.039-.292-1.362-2.72-1.743-3.198-1.584-2.873-1.606-3.271-.022-.404.049-.622.288-.883a1.09 1.09 0 0 1 1.564-.072c.148.136.319.43.96 1.644.429.812.829 1.53.89 1.595a.7.7 0 0 0 .526.227c.291 0 .482-.117.669-.409l.095-.149V8.838l.11.026c.781.181 1.657.912 2.064 1.722.057.114.144.339.194.5l.09.294.021 4.92c.019 4.547.026 4.929.09 5.045.323.591 1.211.504 1.389-.136.056-.202.057-9.213.001-9.709a4.79 4.79 0 0 0-3.726-4.142l-.227-.049-.015-1.405c-.015-1.397-.015-1.406-.122-1.724a2.7 2.7 0 0 0-.694-1.116c-.472-.471-.961-.709-1.606-.783-.419-.048-6.298-.046-6.712.002m6.903 1.59c.24.125.487.37.604.6l.096.187.011 4.52.01 4.52-.146-.22c-.681-1.03-1.919-1.473-3.055-1.094a2.65 2.65 0 0 0-1.668 1.671c-.094.283-.107.388-.108.843-.002.738.072.976.596 1.93l.225.41H8.43c-1.892 0-1.892 0-2.242-.32a1.7 1.7 0 0 1-.309-.385l-.099-.195V4.66l.093-.18c.165-.316.476-.588.773-.675.083-.024 1.372-.036 3.414-.032l3.28.007zm-5.22 1.4a.77.77 0 0 0-.438.341l-.102.173v1.211c0 1.17.003 1.216.087 1.366a1 1 0 0 0 .247.265l.159.111h3.494l.159-.111a1 1 0 0 0 .247-.265c.084-.15.087-.196.087-1.364 0-1.167-.003-1.214-.087-1.364a1 1 0 0 0-.25-.265l-.163-.111-1.68-.007c-.924-.004-1.716.005-1.76.02M10.76 7v.24H9.24v-.48h1.52z"/></svg>

<svg fill="none" xmlns="http://www.w3.org/2000/svg" viewBox="0 0 24 24"><path d="M6.617 2.283 C 6.034 2.351,5.519 2.610,5.065 3.064 C 4.732 3.396,4.521 3.735,4.369 4.180 L 4.260 4.500 4.260 10.500 L 4.260 16.500 4.369 16.820 C 4.520 17.265,4.731 17.603,5.064 17.936 C 5.397 18.269,5.737 18.480,6.180 18.630 L 6.500 18.738 8.715 18.759 L 10.930 18.780 11.639 20.080 C 12.028 20.795,12.409 21.446,12.484 21.526 C 12.738 21.798,13.151 21.819,13.469 21.576 C 13.654 21.435,13.736 21.259,13.736 21.000 C 13.737 20.786,13.697 20.708,12.374 18.280 C 10.631 15.082,10.790 15.407,10.768 15.009 C 10.746 14.605,10.817 14.387,11.056 14.126 C 11.479 13.665,12.166 13.634,12.620 14.054 C 12.768 14.190,12.939 14.484,13.580 15.698 C 14.009 16.510,14.409 17.228,14.470 17.293 C 14.609 17.441,14.793 17.520,14.996 17.520 C 15.287 17.520,15.478 17.403,15.665 17.111 L 15.760 16.962 15.760 12.900 L 15.760 8.838 15.870 8.864 C 16.651 9.045,17.527 9.776,17.934 10.586 C 17.991 10.700,18.078 10.925,18.128 11.086 L 18.218 11.380 18.239 16.300 C 18.258 20.847,18.265 21.229,18.329 21.345 C 18.652 21.936,19.540 21.849,19.718 21.209 C 19.774 21.007,19.775 11.996,19.719 11.500 C 19.488 9.463,17.985 7.792,15.993 7.358 L 15.766 7.309 15.751 5.904 C 15.736 4.507,15.736 4.498,15.629 4.180 C 15.481 3.737,15.270 3.398,14.935 3.064 C 14.463 2.593,13.974 2.355,13.329 2.281 C 12.910 2.233,7.031 2.235,6.617 2.283 M13.520 3.873 C 13.760 3.998,14.007 4.243,14.124 4.473 L 14.220 4.660 14.231 9.180 L 14.241 13.700 14.095 13.480 C 13.414 12.450,12.176 12.007,11.040 12.386 C 10.257 12.647,9.631 13.274,9.372 14.057 C 9.278 14.340,9.265 14.445,9.264 14.900 C 9.262 15.638,9.336 15.876,9.860 16.830 L 10.085 17.240 8.430 17.240 C 6.538 17.240,6.538 17.240,6.188 16.920 C 6.073 16.815,5.934 16.642,5.879 16.535 L 5.780 16.340 5.780 10.500 L 5.780 4.660 5.873 4.480 C 6.038 4.164,6.349 3.892,6.646 3.805 C 6.729 3.781,8.018 3.769,10.060 3.773 L 13.340 3.780 13.520 3.873 M8.300 5.273 C 8.101 5.340,7.955 5.454,7.862 5.614 L 7.760 5.787 7.760 6.998 C 7.760 8.168,7.763 8.214,7.847 8.364 C 7.895 8.449,8.006 8.569,8.094 8.629 L 8.253 8.740 10.000 8.740 L 11.747 8.740 11.906 8.629 C 11.994 8.569,12.105 8.449,12.153 8.364 C 12.237 8.214,12.240 8.168,12.240 7.000 C 12.240 5.833,12.237 5.786,12.153 5.636 C 12.105 5.551,11.993 5.432,11.903 5.371 L 11.740 5.260 10.060 5.253 C 9.136 5.249,8.344 5.258,8.300 5.273 M10.760 7.000 L 10.760 7.240 10.000 7.240 L 9.240 7.240 9.240 7.000 L 9.240 6.760 10.000 6.760 L 10.760 6.760 10.760 7.000 " stroke="none" fill-rule="evenodd"/></svg>
